X:154
T: ICH KAM EINMAL ZUR STADT HINEIN
N: Z0153
O: Europa, Mitteleuropa, Deutschland, Pommern
R: Erzaehlung, lustige Romanze, Gesellen - Lied
M: 4/4
L: 1/8
K: A
E2 | A2A2A2B2 | c2c2c2
cd | eeeefedc | cBB2B2z
c | eeeeffzd | dddde2z
E | ABcdeafd | ccBBA2

